/* XPM */
static char * zombie2_xpm[] = {
"64 64 33 1",
" 	c #032D00",
".	c #B5C28F",
"+	c #98A279",
"@	c #792A2A",
"#	c #AC3232",
"$	c #451313",
"%	c #858E6A",
"&	c #D3E3A7",
"*	c #FF2800",
"=	c #EFEBA7",
"-	c #280B0B",
";	c #FFE172",
">	c #5B849E",
",	c #608BA6",
"'	c #76A4C2",
")	c #FFEA9E",
"!	c #BEAF76",
"~	c #A3463F",
"{	c #066D00",
"]	c #044900",
"^	c #868686",
"/	c #AEAEAE",
"(	c #952A28",
"_	c #451007",
":	c #280904",
"<	c #797979",
"[	c #494949",
"}	c #D7D4D4",
"|	c #933434",
"1	c #A14242",
"2	c #963737",
"3	c #AD4D4D",
"4	c #B65555",
"                                                                ",
"                                                                ",
"                                                                ",
"                                                                ",
"                                                                ",
"                                                                ",
"                                                                ",
"                                                                ",
"                                                                ",
"                                                                ",
"                                                                ",
"                                                                ",
"                                                                ",
"                                                                ",
"                                                                ",
"                          ....+                                 ",
"                         .....+@#                               ",
"                        ..$..+@##@                              ",
"                        .....+++@@+                             ",
"                        %%%.%%%.&&+                             ",
"                        *=+.+$-.%&+                             ",
"                        ...-....&.+                             ",
"                        $++++++..$+                             ",
"                         ;#;;$;+-++                             ",
"                          +#$$$+.+                              ",
"        ...              +#$$$$..+.                             ",
"          ..+           >.;$$$;.++.+,'''                        ",
"        ++++....+    ..>>..$;$..+..,'''''                       ",
"       ++ .......++..#..>>.....++.+....'''                      ",
"          %%%%#....##..++>++++++.+'###.+''                      ",
"         %%     +...++++>>>....++',#)##+''                      ",
"                 +++    ..........,))!#%,'                      ",
"                      ....#.....#..)!!#%,                       ",
"                     ..+.......#.#.%!,,,,                       ",
"                       ..+..++....%%,,,,                        ",
"                      ..  .+''%%%%%',,,,                        ",
"                         .+''''''''',,,,                        ",
"                           '''''''',,,,,                        ",
"                           ''~~'''',+,,       {                 ",
"                          '''~.+'''+~,,       {                 ",
"                          ''''..+'',~,,  ]]   {{                ",
"                         ''''''..+',,,,   ]    {                ",
"                         ^^^'''~/.'',,,,  ]]   {   ]            ",
"                         ((^^^''^/^'',,,       ]  ]]            ",
"                        (((__^/'''^''',^    {  ]  ]             ",
"                       ((______//'''''^__   {{   ]]             ",
"                      ________::___''_____   ]                  ",
"                     ________::::______%__   ]                  ",
"                    _%_%~____:   :____%%%__                     ",
"             {     _%___~~__:     :___~~%___                    ",
"             {     ..%____::       :___~~%__:                   ",
"             {     #)#%%_:          :____%__:                   ",
"     {      ]]     #)!.#:            :_____:::                  ",
"      {{    ]       )!.#              ::__::::                  ",
"        {   ]    {  )!%                 :::::::                 ",
"        ]       ]{   )#%                 :::::::                ",
"         ]     ]]    )#%                  ::::::                ",
"         ]     ]    <<<%[                  ::<<<                ",
"         ]         <}}}<[                  |1}}}<               ",
"                  1///<[[                   2<//3<              ",
"                 1444<[[<                   <[<4441             ",
"                 222222<<                   <<22222             ",
"                                                                ",
"                                                                "};
