/* XPM */
static char * botolachiusa_xpm[] = {
"64 64 8 1",
" 	c #032D00",
".	c #595959",
"+	c #3D3D3D",
"@	c #101010",
"#	c #202020",
"$	c #000000",
"%	c #FBF236",
"&	c #D2D2D2",
"                                                                ",
"                                                                ",
"                                                                ",
"                                                                ",
"                           ..........                           ",
"                      .....++++++++++.....                      ",
"                    ..++++++++++++++++++++..                    ",
"                  ..++++++++++++++++++++++++..                  ",
"                 .++++++++++++++++++++++++++++.                 ",
"                .+++++++++++@@@@@@@@+++++++++++.                ",
"              ..++++++++@@@@###$%###@@@@++++++++..              ",
"             .++++++@@@@#####..$%..#####@@@@++++++.             ",
"           ..++++++@#####......%$......#####@++++++..           ",
"          .+++++++@###.......++%$++.......###@+++++++.          ",
"         .+++++++@##.....++++++$%++++++.....##@+++++++.         ",
"        .+++++++@##...+++++.#++$%++#.+++++...##@+++++++.        ",
"        .++++++@##...++++++##++%$++##++++++...##@++++++.        ",
"       .++++++@##...+++++++++++%$+++++++++++...##@++++++.       ",
"      .++++++@##...+++.#++++#.+$%+.#++++#.+++...##@++++++.      ",
"      .+++++@##...++++##+++++#.$%.#+++++##++++...##@+++++.      ",
"     .+++++@###..++++++++++++#.%$.#++++++++++++..###@+++++.     ",
"     .+++++@##..++.#+++++++++#.%$.#+++++++++#.++..##@+++++.     ",
"     .++++@##...++##++++++++#.+$%+.#++++++++##++...##@++++.     ",
"    .+++++@#...++++++++++++++++$%++++++++++++++++...#@+++++.    ",
"    .+++++@#..++++@@@@@@@@@@@@@%$@@@@@@@@@@@@@++++..#@+++++.    ",
"    .++++@##..++@@#############%$#############@@++..##@++++.    ",
"    .++++@#..++@####$$$$$$$$$$$$%$$$$$$$$$$$####@++..#@++++.    ",
"   .+++++@#..++@##$############$%############$##@++..#@+++++.   ",
"   .++++@##..+@##$##&&&####&&&#%$#&&&&###&&&&#$##@+..##@++++.   ",
"   .++++@#..++@##$#&###&##&###&%$&######&#####$##@++..#@++++.   ",
"   .++++@#..++@##$#&######&###&$%&######&#####$##@++..#@++++.   ",
"   .++++@#.+#+@##$#&######&###&$%&######&#####$##@+#+.#@++++.   ",
"   .++++@#.##+@##$##&&&###&&&&&%$&&&&&##&&&###$##@+##.#@++++.   ",
"   .++++@#..++@##$#####&##&###&%$&######&#####$##@++..#@++++.   ",
"   .++++@#..++@##$#####&##&###&$%&######&#####$##@++..#@++++.   ",
"   .++++@##..+@##$#&###&##&###&$%&######&#####$##@+..##@++++.   ",
"   .+++++@#..+@##$##&&&###&###&%$&#######&&&&#$##@+..#@+++++.   ",
"    .++++@#..++@#$#############%$#############$#@++..#@++++.    ",
"    .++++@##..+@##$############$%############$##@+..##@++++.    ",
"    .+++++@#..++@###$$$$$$$$$$$$%$$$$$$$$$$$###@++..#@+++++.    ",
"    .+++++@#...+++@############%$############@+++...#@+++++.    ",
"     .++++@##...+++++++++++++++%$+++++++++++++++...##@++++.     ",
"     .+++++@##..+++.#++++++++++$%++++++++++#.+++..##@+++++.     ",
"     .++++++@##..++##++++++++++$%++++++++++##++..##@++++++.     ",
"      .+++++@##...++++++++++#.+%$+.#++++++++++...##@+++++.      ",
"       .+++++@##...++++.#++++#.%$.#++++#.++++...##@+++++.       ",
"        .+++++@##...+++##++++#.$%.#++++##+++...##@+++++.        ",
"         .+++++@##....+++++++#.$%.#+++++++....##@+++++.         ",
"         .++++++@###...+++++#.+%$+.#+++++...###@++++++.         ",
"          .++++++@@##....++++++%$++++++....##@@++++++.          ",
"          .++++++++@###......++$%++......###@++++++++.          ",
"           ..+++++++@@###......$%......###@@+++++++..           ",
"             .++++++++@@#####..%$..#####@@++++++++.             ",
"              ..++++++++@@@@###%$###@@@@++++++++..              ",
"                .+++++++++++@@@@@@@@+++++++++++.                ",
"                 ...++++++++++++++++++++++++...                 ",
"                    .++++++++++++++++++++++.                    ",
"                    ..++++++++++++++++++++..                    ",
"                      .....++++++++++.....                      ",
"                           ..........                           ",
"                                                                ",
"                                                                ",
"                                                                ",
"                                                                "};
