/* XPM */
static char * botolaaperta_xpm[] = {
"64 64 19 1",
" 	c #032D00",
".	c #595959",
"+	c #3D3D3D",
"@	c #101010",
"#	c #7D7D7D",
"$	c #0C0C0C",
"%	c #454545",
"&	c #000000",
"*	c #FBF236",
"=	c #202020",
"-	c #2A2A2A",
";	c #1E1E1E",
">	c #171717",
",	c #BABABA",
"'	c #D2D2D2",
")	c #040404",
"!	c #080808",
"~	c #0B0B0B",
"{	c #060606",
"                                                                ",
"                                                                ",
"                                                                ",
"                                                                ",
"                           ..........                           ",
"                      .....++++++++++.....                      ",
"                    ..++++++++++++++++++++..                    ",
"                  ..++++++++++++++++++++++++..                  ",
"                 .++++++++++++++++++++++++++++.                 ",
"                .+++++++++++@@@@@@@@+++++++++++.                ",
"              ..++##++++@@@@$$$$$$$$@@@@++++##++..              ",
"             .++++#%@@@@$$$$$$$$$$$$$$$$@@@@%#++++.             ",
"           ..+++++#%$$$$$$$$$$$$$$$$$$$$$$$$%#+++++..           ",
"          .+++++++#.%$$$$$$$$$$$$$$$$$$$$$$%.#+++++++.          ",
"         .+++++++@$#%$$$$$$$$$$$$$$$$$$$$$$%#$@+++++++.         ",
"        .+++++++@$$#%$$$$$$$$$$$$$$$$$$$$$$%#$$@+++++++.        ",
"        .++++++@$$$#..$$$$$$$$$$$$$$$$$$$$..#$$$@++++++.        ",
"       .++++++@$$$$#.%.###$$$$$$$$$$$$###.%.#$$$$@++++++.       ",
"      .++++++@$$$$$#.%%%...##########...%%%.#$$$$$@++++++.      ",
"      .+++++@&$$$$$#.%$$$%%%........%%%$$$%.#$$$$$*@+++++.      ",
"     .+++++@=*$$$$$$#.$$$$$$$$$$$$$$$$$$$$.#$$$$$$&=@+++++.     ",
"     .+++++@=*$$$$$$#.%$$$$$$$$$$$$$$$$$$%.#$$$$$$&=@+++++.     ",
"     .++++@=+&$$$$$$#.%$$$$$$$$$$$$$$$$$$%.#$$$$$$*+=@++++.     ",
"    .+++++@=+&$$$$$$#.%$$$$$$$$$$$$$$$$$$%.#$$$$$$*+=@+++++.    ",
"    .+++++@@@*$$$$$$#...$$$$$$$$$$$$$$$$...#$$$$$$&@@@+++++.    ",
"    .++++@===*$$$$$$$#..###.$$$$$$$$.###..#$$$$$$$&===@++++.    ",
"    .++++@&&&&$$$$$$$-;%.....######.....%;-$$$$$$$*&&&@++++.    ",
"   .+++++@===&$$$$$$$-;>%%%..........%%%>;-$$$$$$$*===@+++++.   ",
"   .++++@,''=*$$$$$$$-;>$$$$%%%%%%%%$$$$>;-$$$$$$$&='',@++++.   ",
"   .++++@==='*$$$$$$$-;>$))))))))))))))$>;-$$$$$$$&'===@++++.   ",
"   .++++@==='&$$$$$$$-;-))))))))))))))))-;-$$$$$$$*'===@++++.   ",
"   .++++@==='&$$$$$)))-!~))))))))))))))~!-)))$$$$$*'===@++++.   ",
"   .++++@==='*$$$)))))~!!!~~))))))))~~!!!~)))))$$$&''',@++++.   ",
"   .++++@,'''*$)))))))~!{!!!!~~~~~~!!!!{!~)))))))$&'===@++++.   ",
"   .++++@==='&)))))))))~{{{{!!!!!!!!{{{{~)))))))))*'===@++++.   ",
"   .++++@==='&)))))))))~{)))){{{{{{)))){~)))))))))*'===@++++.   ",
"   .+++++@=='*))))))))))))))))))))))))))))))))))))&'==@+++++.   ",
"    .++++@===*))))))))))))))))))))))))))))))))))))&===@++++.    ",
"    .++++@===&))))))))))))))))))))))))))))))))))))*===@++++.    ",
"    .+++++@&&&))))))))))))))))))))))))))))))))))))*&&@+++++.    ",
"    .+++++@==*))))))))))))))))))))))))))))))))))))&+=@+++++.    ",
"     .++++@=+*))))))))))))))))))))))))))))))))))))&+=@++++.     ",
"     .+++++@=&))))))))))))))))))))))))))))))))))))*=@+++++.     ",
"     .++++++@&))))))))))))))))))))))))))))))))))))*@++++++.     ",
"      .+++++@*))))))))))))))))))))))))))))))))))))&@+++++.      ",
"       .+++++@))))))))))))))))))))))))))))))))))))@+++++.       ",
"        .+++++@))))))))))))))))))))))))))))))))))@+++++.        ",
"         .+++++@))))))))))))))))))))))))))))))))@+++++.         ",
"         .++++++@))))))))))))))))))))))))))))))@++++++.         ",
"          .++++++@@))))))))))))))))))))))))))@@++++++.          ",
"          .++++++++@))))))))))))))))))))))))@++++++++.          ",
"           ..+++++++@@))))))))))))))))))))@@+++++++..           ",
"             .++++++++@@))))))))))))))))@@++++++++.             ",
"              ..++++++++@@@@))))))))@@@@++++++++..              ",
"                .+++++++++++@@@@@@@@+++++++++++.                ",
"                 ...++++++++++++++++++++++++...                 ",
"                    .++++++++++++++++++++++.                    ",
"                    ..++++++++++++++++++++..                    ",
"                      .....++++++++++.....                      ",
"                           ..........                           ",
"                                                                ",
"                                                                ",
"                                                                ",
"                                                                "};
