/* XPM */
static char * prato_xpm[] = {
"64 64 3 1",
" 	c #032D00",
".	c #066D00",
"+	c #044900",
"                                                                ",
"                                                                ",
"                                                                ",
"                                                                ",
"                                                                ",
"                                                                ",
"                                                                ",
"                                                                ",
"                                                                ",
"                                                                ",
"                                                                ",
"                                                                ",
"                                                                ",
"                                                                ",
"                                                                ",
"                                                                ",
"                               .                                ",
"                              ..                                ",
"                        .     +                                 ",
"                        ..   +                                  ",
"                         +   +                                  ",
"                         ++                                     ",
"                          +                                     ",
"                          +  .                                  ",
"                          +  +                                  ",
"                            +                                   ",
"                            +                                   ",
"                                                                ",
"                                                                ",
"                                                                ",
"                                                                ",
"                                                                ",
"                                                                ",
"                                                                ",
"                                                                ",
"                                                                ",
"                                                                ",
"                                                                ",
"                                              .                 ",
"                                              .                 ",
"                                         ++   ..                ",
"                                          +    .                ",
"                                          ++   .   +            ",
"                                               +  ++            ",
"                                            .  +  +             ",
"                                            ..   ++             ",
"                                             +                  ",
"                                             +                  ",
"                                                                ",
"             .                                                  ",
"             .                                                  ",
"             .                                                  ",
"     .      ++                                                  ",
"      ..    +                                                   ",
"        .   +    .                                              ",
"        +       +.                                              ",
"         +     ++                                               ",
"         +     +                                                ",
"         +                                                      ",
"                                                                ",
"                                                                ",
"                                                                ",
"                                                                ",
"                                                                "};
