/* XPM */
static char * surv3_xpm[] = {
"64 64 20 1",
" 	c #032D00",
".	c #A68D2E",
"+	c #8E7927",
"@	c #DBB38D",
"#	c #EEC39A",
"$	c #CEAA88",
"%	c #FFFFFF",
"&	c #41211B",
"*	c #F7D2AF",
"=	c #010039",
"-	c #0C0C0C",
";	c #010024",
">	c #181818",
",	c #242424",
"'	c #494949",
")	c #010014",
"!	c #696969",
"~	c #066D00",
"{	c #044900",
"]	c #282828",
"                                                                ",
"                                                                ",
"                                                                ",
"                                                                ",
"                                                                ",
"                                                                ",
"                                                                ",
"                            ....++++                            ",
"                           ......++++                           ",
"                          .......+++++                          ",
"                          .......+++++                          ",
"                          .....@@+++++                          ",
"                          ....@@@@++++                          ",
"                          .#.#...@.+++                          ",
"                          .#$#%&#@%&++                          ",
"                           ######@##@+                          ",
"                           $#####*@#@                           ",
"                          ==########@                           ",
"                       ----=@##$$$$#@                           ",
"                      ===---=@#####@=-                          ",
"                     =====---==@@@@==--                         ",
"                     =====----======---=                        ",
"                    ======-------------=                        ",
"                    ==;;==;->>>>>>>>>>-=                        ",
"                   ====;;=;->>,,,,,,,>-;                        ",
"                   =====;;;->>,,,,,,,>-;;                       ",
"                 ',-'===;;)->>,,,,,,,>-;=-                      ",
"                '',-,,==;))->>,,,,,,,>-!,--                     ",
"                ',,-,,,=)))->>,,,,,,,>-,,,-                     ",
"                ,,,-!!,)))-->>>,,,,,,>-,,'-                     ",
"                ,---''!))---->>>>>>>>>-''!!                     ",
"                --!!!!'----------------!!!!                     ",
"                 ''''!!>>>>>,,-------,,!!'''                    ",
"                 !!!!''>>>>>,,-------,,''!!!                    ",
"                 '''!! ----------------'!---                    ",
"                 !!!''----------------'!--$--                   ",
"                  '!--->>>>>,,-------, --$##-                   ",
"                  !----#>>>>,,-------, -$#$#-                   ",
"                  -----#!---------,>,>,-$##-- ~                 ",
"                  ----##!-,>,>,>,>>,>,> -$--  ~                 ",
"                  ---##!!->,>,>,>,>,>,>  {{   ~~                ",
"                   ###-!-->,>,>,>,>;;;=   {    ~                ",
"                      ----;;;;;;;;;;====  {{   ~   {            ",
"                    ,,>--====;;;;;====->,,     {  {{            ",
"                   ,,,,>-===;;;;;;===->,,,  ~  {  {             ",
"                   ,,,,>-]=;;   ;;;=]->,,,, ~~   {{             ",
"                  ,,,,>-]]>;     ;;>]->,,,,  {                  ",
"                  ,,,,>-]]>        >]->,,,,  {                  ",
"                  >,,,>-]>         >]]->,,,                     ",
"             ~    ->>>-]]>          >]]->>>                     ",
"             ~    ;---]]>           >]]]--                      ",
"             ~    ;=;;;;;           >];;;==                     ",
"     ~      {{     ====;;;          ;;;====                     ",
"      ~~    {      =====;;          ;;===;;;                    ",
"        ~   {    ~;;;;=;;;          ;;;;;;==                    ",
"        {       {~====;;;           ;;;=====                    ",
"         {     {{ =====;;            ;;=====                    ",
"         {     {  =>>>>;;            ;;>>>>=                    ",
"         {         ,,,>>>            >>>,,,                     ",
"                  >,,>>>>            >>>>,,>                    ",
"                 >>>>>---            --->>>>>                   ",
"                 --------            --------                   ",
"                                                                ",
"                                                                "};
