/* XPM */
static char * supply_xpm[] = {
"64 64 30 1",
" 	c #032D00",
".	c #066D00",
"+	c #555555",
"@	c #044900",
"#	c #797979",
"$	c #3D3D3D",
"%	c #393230",
"&	c #0C0C0C",
"*	c #611600",
"=	c #410F00",
"-	c #717171",
";	c #9AFFEF",
">	c #595959",
",	c #78C6BA",
"'	c #C6FBF3",
")	c #82542C",
"!	c #5D3C1F",
"~	c #311F0F",
"{	c #A20D00",
"]	c #750900",
"^	c #FFA100",
"/	c #1C6D00",
"(	c #C27B00",
"_	c #134900",
":	c #0C0B0A",
"<	c #E3E3E3",
"[	c #000000",
"}	c #181514",
"|	c #553600",
"1	c #352100",
"                                                                ",
"                                                                ",
"                                                                ",
"                                                                ",
"                                                                ",
"                                                                ",
"                                                                ",
"                                                                ",
"                                                   .            ",
"                                                   .            ",
"                                                  ..            ",
"                                                  .             ",
"                            ++++++                @             ",
"                           #$$$$$$+           .  @@             ",
"                          #$##++++$+          .. @              ",
"                         #$##+$$$++$+          .    .           ",
"                         #$##$%%%++$+          @@  ..           ",
"                         +#$###+++$+$           @  .            ",
"               .        .&+#$$$$$$+$&           @  @            ",
"               .       ++*&+####++$&=             @             ",
"              .       #$$**&++++$$&==             @             ",
"             .@      #$##***&&&&&&===             @             ",
"        .    @      #$##+*******=====    --       @             ",
"         ..  @      #$##$&******====&+   --                     ",
"          .         +#$##+&*****===&$$+ ;>>;                    ",
"          @@        &+#$$#+&****==&$++$,;;;;,                   ",
"           @        *&+####+&&&&&&$+$+';,;;,;;                  ",
"           @       )))))+++#++++$$+%%+';;,,;;;                  ",
"                    !!!!)))&####++#+++,';;;;;,                  ",
"                   !!!!!!!!)=&+#$$$$$$+,'''',                   ",
"                   !!!!!!!!!=*&+####++;;,,,,;;                  ",
"               )   !!!!!!!!!=**&++++$$';;;;;;;                  ",
"              ))) !!!!!!!!!==***&&&&&&,';;;;;,                  ",
"             )))))~~!!!!!!!&&*******===,'''',                   ",
"            ))))){]{]~!!!!!$$&******==,;,,,,;,                  ",
"             )))~{]{]~~~!!#+++&*****==',;;;;,;                  ",
"              )~{]^{]{]~~!   #+&****==';,,,,;;                  ",
"              //{]{]^{]~))    #+&&&&&&,';;;;;,                  ",
"              ////{]{]]))))    #++++$$','''',;                  ",
"              ^^////{]))))  ]]]((###++';,,,,;;                  ",
"              ^^^^///))))_  {{{^^     ,';;;;;,                  ",
"              //^^^^/())(_             ,'''',                   ",
"               ///^^^((:(_ {]           ,,,,                    ",
"                ////^((:(  {]   {{<::                           ",
"                  ///((:   {]   {{<::<{{(^%  ^                  ",
"                    /((    ^(  {{<::<{{{%%^  (                  ",
"              {]           ^(  {{<::<{{{(%%  (                  ",
"              {] ]]]((         ]]]<[[<{(%(                      ",
"              {] {{{^^         ]]]<[[<]}|1  ^                   ",
"              ^(                     <]}}}  ( ((^               ",
"              ^(                           ^(                   ",
"                              .     ((^    (                    ",
"                             .         ((^ (                    ",
"                             .                                  ",
"                       .    .                                   ",
"                       ..   @                                   ",
"                        .   @   .                               ",
"                         .    @.                                ",
"                         @@  @@                                 ",
"                          @  @                                  ",
"                          @                                     ",
"                          @                                     ",
"                                                                ",
"                                                                "};
