/* XPM */
static char * albero_xpm[] = {
"64 64 9 1",
" 	c #032D00",
".	c #022400",
"+	c #011C00",
"@	c #011800",
"#	c #066D00",
"$	c #044900",
"%	c #241300",
"&	c #311A00",
"*	c #391D00",
"                               ..                               ",
"                               ..                               ",
"                              +..+                              ",
"                             +....+                             ",
"                            +..++..+                            ",
"                            .+@..@+.                            ",
"                           ....@@....                           ",
"                          ..+......+..                          ",
"                          .@...++...@.                          ",
"                         +++@.+@@+.@+++                         ",
"                         .+.++@++@++.+.                         ",
"                        +....@+..+@....+                        ",
"                       @..+.+......+.+..@                       ",
"                      ...+@....++....@+...                      ",
"                       ++@....+..+....@++                       ",
"                      +...++++.++.++++...+                      ",
"                    .@..+...+@@..@@+...+..@.                    ",
"                   ....++..@@......@@..++....                   ",
"                  ...++...@...++++...@...++...                  ",
"                    +...+..++++..++++..+...+                    ",
"                   +...++@+..+....+..+@++...+                   ",
"                  ++@.+.....+..++..+.....+.@++                  ",
"                   ..++@...+@++++++@+...@++..                   ",
"                  ......++@@..+..+..@@++......                  ",
"                 ....+.+@..+++....+++..@+.+....                 ",
"                ...+@......+@.@..@.@+......@+...                ",
"               ...+@....++.....@@.....++....@+...               ",
"                 +...++@@..............@@++...+                 ",
"                 .+++@@@..++...++...++..@@@+++.                 ",
"                ......@++++...@..@...++++@......                ",
"               ...........@++@....@++@...........               ",
"              ......++@......++..++......@++......              ",
"             ....+++@.....+@+......+@+.....@+++....             ",
"              +++@..++++@@.....++.....@@++++..@+++              ",
"             ++@@..+++..+++@..@@@@..@+++..+++..@@++             ",
"           .....+@.....++...++@..@++...++.....@+.....           ",
"             ..+....++@....@@......@@....@++....+..             ",
"              @..++++....++..........++....++++..@              ",
"             +++++@.....++...++..++...++.....@+++++             ",
"            ...+@.@@@..++...++....++...++..@@@.@+...            ",
"          ..........++++@@+++@....@+++@@++++..........          ",
"         .........+++@....+@@..++..@@+....@+++.........         ",
"            ..++++.......++@++++++++@++.......++++..            ",
"            +++++...++..++@...++++...@++..++...+++++            ",
"           ++++....++..........++..........++....++++           ",
"          ++....++++....++............++....++++....++          ",
"         +@@@@+++@.....++@....+..+....@++.....@+++@@@@+         ",
"             .+@@@@@++++@...@+....+@...@++++@@@@@+.             ",
"            .+@@...++@@@...@+++..+++@...@@@++...@@+.            ",
"           .......++...++@++++++++++++@++...++.......           ",
"          ....+++.....++@@...++@@++...@@++.....+++....          ",
"            @++@.....++@....++@..@++....@++.....@++@            ",
"     #      $@@...++........................++...@@             ",
"      ##    $@..@++....+....+++..+++....+....++@..@             ",
"        #   $ @@@...++++..+++@....@+++..++++...@@@              ",
"        $       ...++@..++++@@@++@@@++++..@++...                ",
"         $     $$@@@@@@@@@@@%%@@@@%%@@@@@@@@@@@                 ",
"         $     $      @@@  %%@@%&@@%%  @@@                      ",
"         $                 *&*&*&%%&%                           ",
"                           *&*&*&%%&%                           ",
"                          *&&*&*&&%&&%                          ",
"                         *&**&&**&&%%&%                         ",
"                        *&**&&&***&&&%&%                        ",
"                                                                "};
